X: 1
T: Solidarity Forever
M: c
L: 1/4
K: F
CC|"F2"C>CCB,|"F9/Eb"A,CFG|"Dm"A>A"F+/Db"AG|"F/C"F2"Gm/F"FE|
"Bbmaj7"D>D"D7/A"DE|"Gm9"F/EF/-FD|"Fmaj7"C>DC/A,C/-|"Bb/C"C2CC|
"F2"C>CCB,|"F9/Eb"A,CF>G|"Dm9"A/c/z"Am7b9"z/A/G|"Bbmaj9/D"Fz/F/-"Bbmaj9/A"FF|
"Gm9"G2-"Gm7b5"G<G|"F2/C"F2"C7b9"E2|"F6/9"F4-|F2:|]

